X:3029
T:Captain Maguire
T:Humours of Listowel
R:Polka
C:Trad.
O:Ireland
Z:Paul Hardy's Session Tunebook 2015 (see www.paulhardy.net). Creative Commons cc by-nc-sa licenced.
M:4/4
L:1/8
Q:1/4=150
K:D
FG|"D"ABAG F2A2|d2e2f2ef|"G"g2ag"A"f2e2|"D"d2f2"A"A2FG|
"D"ABAG F2A2|d2e2f2ef|"G"g2ag"A"f2e2|"D"d4d2+fine+:|
|:cd|"A"e2ee e2d2|c2e2a4| e2ee e2f2|g2e2c2A2|
"A" e2ee e2d2|c2e2a4|"Em"efed c2B2|"A"A4A2:|

